X:1
T:Eclipse -- Hornpipe
R:hornpipe
B:Ryan's Mammoth Collection
N: 135 784
Z: Contributed by Ray Davies,  ray:davies99.freeserve.co.uk
M:2/4
L:1/16
K:Bb
vFE|\
DFBF dFBF | DFBc d2f2 | edcB Acde | f=efg f_edc |
DFBF dFBF | DFBc d2f2 | edcB AFGA | B2d2B2:|
|:vde|\
fbBd f=egf | _edcB vG2vFE | DFBd BcdB | edcB vc2vde |
fbBd f=egf | _edcB vG2vFE | DFBd cBAc | B2d2B2:|
